public/icons/message.svg

<svg width="20" height="20" viewBox="0 0 20 20" fill="none" xmlns="http://www.w3.org/2000/svg">
<mask id="path-1-inside-1_288_50" fill="white">
<path fill-rule="evenodd" clip-rule="evenodd" d="M7.5 0C3.35786 0 0 3.35786 0 7.5C0 11.6421 3.35786 15 7.5 15H10.9095L10.8472 19.6528L16.9978 13.5022C18.8207 12.134 20 9.95472 20 7.5C20 3.35786 16.6421 0 12.5 0H7.5Z"/>
</mask>
<path d="M10.9095 15L12.9093 15.0268L12.9364 13H10.9095V15ZM10.8472 19.6528L8.84739 19.626L8.78151 24.5469L12.2614 21.067L10.8472 19.6528ZM16.9978 13.5022L15.7972 11.9026L15.6838 11.9877L15.5836 12.088L16.9978 13.5022ZM2 7.5C2 4.46243 4.46243 2 7.5 2V-2C2.2533 -2 -2 2.2533 -2 7.5H2ZM7.5 13C4.46243 13 2 10.5376 2 7.5H-2C-2 12.7467 2.2533 17 7.5 17V13ZM10.9095 13H7.5V17H10.9095V13ZM12.847 19.6796L12.9093 15.0268L8.90967 14.9732L8.84739 19.626L12.847 19.6796ZM15.5836 12.088L9.43299 18.2386L12.2614 21.067L18.412 14.9164L15.5836 12.088ZM18 7.5C18 9.29883 17.1386 10.8959 15.7972 11.9026L18.1984 15.1018C20.5029 13.3721 22 10.6106 22 7.5H18ZM12.5 2C15.5376 2 18 4.46243 18 7.5H22C22 2.2533 17.7467 -2 12.5 -2V2ZM7.5 2H12.5V-2H7.5V2Z" fill="white" mask="url(#path-1-inside-1_288_50)"/>
</svg>

<svg width="20" height="20" fill="none" xmlns="http://www.w3.org/2000/svg"><mask id="a" fill="#fff"><path fill-rule="evenodd" clip-rule="evenodd" d="M7.5 0a7.5 7.5 0 1 0 0 15h3.41l-.063 4.653 6.15-6.15A7.5 7.5 0 0 0 12.5 0H7.501Z"/></mask><path d="m10.91 15 2 .027.026-2.027H10.91v2Zm-.063 4.653-2-.027-.065 4.92 3.48-3.479-1.415-1.414Zm6.15-6.15-1.2-1.6-.113.085-.1.1 1.414 1.414ZM2 7.5A5.5 5.5 0 0 1 7.5 2v-4A9.5 9.5 0 0 0-2 7.5h4ZM7.5 13A5.5 5.5 0 0 1 2 7.5h-4A9.5 9.5 0 0 0 7.5 17v-4Zm3.41 0H7.5v4h3.41v-4Zm1.937 6.68.062-4.653-4-.054-.062 4.653 4 .054Zm2.737-7.592-6.151 6.15 2.828 2.829 6.151-6.15-2.828-2.829ZM18 7.5a5.488 5.488 0 0 1-2.203 4.403l2.401 3.199A9.489 9.489 0 0 0 22 7.5h-4ZM12.5 2A5.5 5.5 0 0 1 18 7.5h4A9.5 9.5 0 0 0 12.5-2v4Zm-5 0h5v-4h-5v4Z" fill="#fff" mask="url(#a)"/></svg>
